modules/hawcons-filled/icons/icon-20-clouds.svg

<?xml version="1.0" encoding="UTF-8" standalone="no"?>
<svg width="32px" height="32px" viewBox="0 0 32 32" version="1.1" xmlns="http://www.w3.org/2000/svg" xmlns:xlink="http://www.w3.org/1999/xlink" xmlns:sketch="http://www.bohemiancoding.com/sketch/ns">
    <!-- Generator: Sketch 3.0.3 (7891) - http://www.bohemiancoding.com/sketch -->
    <title>icon 20 clouds</title>
    <desc>Created with Sketch.</desc>
    <defs></defs>
    <g id="Page-1" stroke="none" stroke-width="1" fill="none" fill-rule="evenodd" sketch:type="MSPage">
        <g id="icon-20-clouds" sketch:type="MSArtboardGroup" fill="#929292">
            <path d="M15.8374098,23.0232669 C17.0608812,23.1902285 18,24.2354757 18,25.5 C18,26.8903379 16.877788,28 15.4934692,28 L7.50653076,28 C6.11962422,28 5,26.8807119 5,25.5 C5,24.283795 5.85871249,23.282362 7.00041797,23.0505909 L7.00041797,23.0505909 C7.00013969,23.0337606 7,23.0168966 7,23 C7,21.3431457 8.34314567,20 10,20 C10.9268437,20 11.7555192,20.4203078 12.3058217,21.0807187 C12.5286313,21.0279355 12.7610533,21 13,21 C14.3148969,21 15.4322146,21.8459367 15.8374098,23.0232669 L15.8374098,23.0232669 Z M16.5537697,22.1622374 C17.8133041,22.5615948 18.7713123,23.6580102 18.9643479,25 L18.9643479,25 L25.0005601,25 C27.7616745,25 30,22.7558048 30,20 C30,17.9483386 28.7676457,16.1852931 26.9993494,15.4145295 L26.9993494,15.4145295 C26.9536744,12.4163763 24.5090248,10 21.5,10 C20.441357,10 19.4525719,10.299097 18.6135384,10.8173973 C17.3372745,9.10728055 15.2979469,8 13,8 C9.13400656,8 6,11.1340066 6,15 C6,15.1381509 6.00400207,15.275367 6.01189661,15.4115388 L6.01189661,15.4115388 C4.23965876,16.1816085 3,17.9491311 3,20 C3,21.4240417 3.59370353,22.7090387 4.54823845,23.6196934 C4.91252289,23.0491956 5.43754441,22.5908867 6.05940842,22.3093277 L6.05940842,22.3093277 C6.38662961,20.4293433 8.0263942,19 10,19 C11.0220863,19 11.9546373,19.3833459 12.6617178,20.0141026 C12.7732404,20.0047636 12.8860639,20 13,20 C14.5465851,20 15.8881641,20.8777349 16.5537697,22.1622374 L16.5537697,22.1622374 L16.5537697,22.1622374 Z M27.4248783,12.8229499 C28.3479899,12.4564585 29,11.5597662 29,10.5 C29,9.2354757 28.0608812,8.19022851 26.8374098,8.02326686 L26.8374098,8.02326686 C26.4322146,6.84593672 25.3148969,6 24,6 C23.7610533,6 23.5286313,6.02793551 23.3058217,6.08071872 C22.7555192,5.42030784 21.9268437,5 21,5 C19.3431457,5 18,6.34314567 18,8 C18,8.01689661 18.0001397,8.0337606 18.000418,8.05059087 L18.000418,8.05059087 C17.7688618,8.09759778 17.5489463,8.17626423 17.3454746,8.28196094 C17.9030329,8.64335206 18.4127608,9.07226749 18.8630774,9.55712634 C19.6689817,9.19900383 20.5612509,9 21.5,9 C24.1354933,9 26.4046422,10.5685061 27.4248783,12.8229499 L27.4248783,12.8229499 L27.4248783,12.8229499 Z" id="clouds" sketch:type="MSShapeGroup"></path>
        </g>
    </g>
</svg>

<svg width="32" height="32" xmlns="http://www.w3.org/2000/svg"><path d="M15.837 23.023A2.5 2.5 0 0 1 15.493 28H7.507A2.502 2.502 0 0 1 5 25.5c0-1.216.859-2.218 2-2.45V23a3 3 0 0 1 5.306-1.92 3.001 3.001 0 0 1 3.532 1.943zm.717-.86A3.514 3.514 0 0 1 18.964 25h6.037C27.76 25 30 22.756 30 20a4.998 4.998 0 0 0-3-4.585 5.5 5.5 0 0 0-8.386-4.598 7 7 0 0 0-12.602 4.594 5.006 5.006 0 0 0-1.464 8.209c.365-.57.89-1.03 1.511-1.31a4.001 4.001 0 0 1 6.603-2.296 4 4 0 0 1 3.892 2.148zm10.87-9.34a2.5 2.5 0 0 0-.587-4.8 3.001 3.001 0 0 0-3.531-1.942A3 3 0 0 0 18 8.05a2.498 2.498 0 0 0-.656.231 8.04 8.04 0 0 1 1.518 1.275 6.501 6.501 0 0 1 8.562 3.266z" fill="#929292" fill-rule="evenodd"/></svg>
